public/assets/img/svg/embed/stat-notice-icon-document.svg

<?xml version="1.0" encoding="UTF-8" standalone="no"?>
<svg width="32px" height="38px" viewBox="0 0 32 38" version="1.1" xmlns="http://www.w3.org/2000/svg" xmlns:xlink="http://www.w3.org/1999/xlink" xmlns:sketch="http://www.bohemiancoding.com/sketch/ns">
    <!-- Generator: Sketch 3.3.2 (12043) - http://www.bohemiancoding.com/sketch -->
    <title>Group</title>
    <desc>Created with Sketch.</desc>
    <defs></defs>
    <g id="Notices" stroke="none" stroke-width="1" fill="none" fill-rule="evenodd" sketch:type="MSPage">
        <g id="1.0-Canvas-view-Copy-5" sketch:type="MSArtboardGroup" transform="translate(-102.000000, -1435.000000)" fill="#0A0B09">
            <g id="Group" sketch:type="MSLayerGroup" transform="translate(102.000000, 1435.000000)">
                <path d="M20.8393846,28.6412308 L19.2812308,32.5907692 L23.232,31.04 L28.6030769,25.6627692 L26.2092308,23.2750769 L20.8393846,28.6412308 L20.8393846,28.6412308 Z M18.1883077,34.3027692 C18.0283077,34.3027692 17.872,34.24 17.7538462,34.1169231 C17.5803077,33.9446154 17.5261538,33.6861538 17.616,33.4658462 L19.7415385,28.0738462 C19.7723077,28 19.8190769,27.9273846 19.8781538,27.8658462 L25.7735385,21.9704615 C26.0049231,21.7366154 26.4135385,21.7366154 26.6436923,21.9704615 L29.9089231,25.2307692 C30.0246154,25.3550769 30.0886154,25.5015385 30.0886154,25.6627692 C30.0886154,25.8338462 30.0246154,25.9815385 29.9089231,26.1046154 L24.0123077,32 C23.952,32.0615385 23.8806154,32.0984615 23.8030769,32.1353846 L18.4147692,34.2646154 C18.3409231,34.2892308 18.2646154,34.3027692 18.1883077,34.3027692 L18.1883077,34.3027692 Z" id="Fill-11574" sketch:type="MSShapeGroup"></path>
                <path d="M29.3636923,26.6461538 L28.4935385,25.7723077 L30.0615385,24.2092308 C30.6116923,23.6553846 30.3827692,22.4012308 29.9323077,21.9446154 C29.4830769,21.4892308 28.2166154,21.2676923 27.6664615,21.8215385 L26.0996923,23.3846154 L25.2295385,22.512 L26.7963077,20.9489231 C27.9212308,19.8276923 29.9692308,20.2473846 30.8024615,21.072 C31.6344615,21.9076923 32.0553846,23.9507692 30.9316923,25.0830769 L29.3636923,26.6461538" id="Fill-11575" sketch:type="MSShapeGroup"></path>
                <path d="M23.4904615,31.1753846 C23.3329231,31.1753846 23.1753846,31.1150769 23.0547692,31.0030769 L20.88,28.8246154 C20.64,28.5784615 20.64,28.1981538 20.88,27.9507692 C21.12,27.7181538 21.5101538,27.7181538 21.7501538,27.9507692 L23.9249231,30.1292308 C24.1661538,30.3643077 24.1661538,30.7569231 23.9249231,31.0030769 C23.8055385,31.1150769 23.648,31.1753846 23.4904615,31.1753846" id="Fill-11576" sketch:type="MSShapeGroup"></path>
                <path d="M26.752,27.9150769 C26.5944615,27.9150769 26.4369231,27.8523077 26.3175385,27.7292308 L24.1415385,25.5643077 C23.9015385,25.3169231 23.9015385,24.9230769 24.1415385,24.6904615 C24.3827692,24.4430769 24.7716923,24.4430769 25.0116923,24.6904615 L27.1876923,26.8689231 C27.4276923,27.1027692 27.4276923,27.4966154 27.1876923,27.7292308 C27.0670769,27.8523077 26.9095385,27.9150769 26.752,27.9150769" id="Fill-11577" sketch:type="MSShapeGroup"></path>
                <path d="M16,37.3304615 L0.615384615,37.3304615 C0.275692308,37.3304615 0,37.0584615 0,36.7138462 L0,9.61230769 C0,9.45353846 0.0603076923,9.30584615 0.168615385,9.18153846 L8.30769231,0.603076923 C8.42461538,0.481230769 8.58584615,0.407384615 8.75446154,0.407384615 L27.6923077,0.407384615 C28.032,0.407384615 28.3076923,0.676923077 28.3076923,1.02276923 L28.3076923,17.6381538 C28.3076923,17.9815385 28.032,18.2523077 27.6923077,18.2523077 C27.3526154,18.2523077 27.0769231,17.9815385 27.0769231,17.6381538 L27.0769231,1.63692308 L9.01907692,1.63692308 L1.23076923,9.85846154 L1.23076923,36.0996923 L16,36.0996923 C16.3396923,36.0996923 16.6153846,36.3692308 16.6153846,36.7138462 C16.6153846,37.0584615 16.3396923,37.3304615 16,37.3304615" id="Fill-11578" sketch:type="MSShapeGroup"></path>
                <path d="M9.23076923,10.2535385 L1.23076923,10.2535385 C0.891076923,10.2535385 0.615384615,9.98153846 0.615384615,9.63815385 C0.615384615,9.29353846 0.891076923,9.02153846 1.23076923,9.02153846 L8.61538462,9.02153846 L8.61538462,1.63692308 C8.61538462,1.29230769 8.89107692,1.02276923 9.23076923,1.02276923 C9.57046154,1.02276923 9.84615385,1.29230769 9.84615385,1.63692308 L9.84615385,9.63815385 C9.84615385,9.98153846 9.57046154,10.2535385 9.23076923,10.2535385" id="Fill-11579" sketch:type="MSShapeGroup"></path>
            </g>
        </g>
    </g>
</svg>

<svg width="32" height="38" viewBox="0 0 32 38" xmlns="http://www.w3.org/2000/svg"><title>Group</title><g fill="#0A0B09" fill-rule="evenodd"><path d="M20.84 28.64l-1.56 3.95 3.952-1.55 5.37-5.377-2.393-2.388-5.37 5.366zm-2.652 5.663c-.16 0-.316-.063-.434-.186-.174-.172-.228-.43-.138-.65l2.126-5.393c.03-.074.077-.147.136-.208l5.896-5.896c.23-.233.64-.233.87 0l3.265 3.26c.115.125.18.272.18.433 0 .17-.065.32-.18.442L24.01 32c-.06.062-.13.098-.21.135l-5.387 2.13c-.074.024-.15.038-.227.038z"/><path d="M29.364 26.646l-.87-.874 1.568-1.563c.55-.555.32-1.81-.13-2.265-.45-.456-1.715-.677-2.266-.123L26.1 23.385l-.87-.873 1.566-1.563c1.125-1.122 3.173-.703 4.006.122.832.836 1.253 2.88.13 4.01l-1.568 1.564M23.49 31.175c-.157 0-.315-.06-.435-.172l-2.175-2.178c-.24-.247-.24-.627 0-.874.24-.232.63-.232.87 0l2.175 2.18c.24.234.24.627 0 .873-.12.112-.277.172-.435.172M26.752 27.915c-.158 0-.315-.063-.434-.186l-2.176-2.166c-.24-.247-.24-.64 0-.874.24-.247.63-.247.87 0l2.176 2.18c.24.233.24.627 0 .86-.12.122-.278.185-.436.185"/><path d="M16 37.33H.615c-.34 0-.615-.272-.615-.616V9.612c0-.158.06-.306.17-.43L8.307.602c.117-.12.278-.195.446-.195h18.938c.34 0 .616.27.616.616v16.615c0 .344-.276.614-.616.614-.34 0-.615-.27-.615-.614v-16H9.02l-7.79 8.22V36.1H16c.34 0 .615.27.615.614s-.275.616-.615.616M9.23 10.254h-8c-.34 0-.615-.272-.615-.616s.276-.616.616-.616h7.385V1.637c0-.345.276-.614.616-.614.34 0 .616.27.616.614v8c0 .345-.276.617-.615.617"/></g></svg>
